X:373
T:Kenmore Lads
R:Country Dance
B:The Athole Collection
M:6/8
L:1/8
K:G
B/A/|G>Bd gdB|d2d d2B|G>Bd gdB|A2A A2B|G>Bd gdB|def gfe|
d>cB c>BA|G2G G2:|
|:b/a/|g2d edB|d2d dba|g2d edB|A2A Aba|g2d edB|def gfe|dec BcA|
G2G G2:|

